docs/.gitbook/assets/icon-speaker-up-16@dark.svg

<svg width="32" height="32" viewBox="0 0 16 16" fill="none" xmlns="http://www.w3.org/2000/svg">
<rect x="0" y="0" width="16" height="16" fill="#181c1f"/>
<path fill-rule="evenodd" clip-rule="evenodd" d="M9.81056 1.25174C10.0857 1.56132 10.0579 2.03538 9.74827 2.31056L5.8166 5.80538C5.31321 6.25284 4.66312 6.50001 3.9896 6.50001H2.75C2.61193 6.50001 2.5 6.61194 2.5 6.75001V9.25001C2.5 9.38808 2.61193 9.50001 2.75 9.50001H3.9896C4.66312 9.50001 5.31321 9.74717 5.8166 10.1946L9.74827 13.6895C10.0579 13.9646 10.0857 14.4387 9.81056 14.7483C9.53537 15.0579 9.06131 15.0858 8.75173 14.8106L4.82006 11.3157C4.59124 11.1124 4.29574 11 3.9896 11H2.75C1.7835 11 1 10.2165 1 9.25001V6.75001C1 5.78351 1.7835 5.00001 2.75 5.00001H3.9896C4.29574 5.00001 4.59124 4.88766 4.82006 4.68427L8.75173 1.18945C9.06131 0.914263 9.53537 0.942148 9.81056 1.25174ZM11.9762 4.00001C12.1888 4.00001 12.3914 4.09025 12.5337 4.24828L14.7837 6.74828C15.0608 7.05617 15.0358 7.53038 14.7279 7.80748C14.42 8.08457 13.9458 8.05961 13.6687 7.75173L12.7262 6.70448V11.25C12.7262 11.6642 12.3904 12 11.9762 12C11.562 12 11.2262 11.6642 11.2262 11.25V6.70448L10.2837 7.75173C10.0066 8.05961 9.53236 8.08457 9.22447 7.80748C8.91659 7.53038 8.89163 7.05617 9.16873 6.74828L11.4187 4.24828C11.561 4.09025 11.7636 4.00001 11.9762 4.00001Z" fill="#fff"/>
</svg>

<svg xmlns="http://www.w3.org/2000/svg" width="32" height="32" fill="none" viewBox="0 0 16 16"><path fill="#181c1f" d="M0 0h16v16H0z"/><path fill="#fff" fill-rule="evenodd" d="M9.81 1.252a.75.75 0 0 1-.062 1.059L5.817 5.805A2.75 2.75 0 0 1 3.99 6.5H2.75a.25.25 0 0 0-.25.25v2.5c0 .138.112.25.25.25h1.24a2.75 2.75 0 0 1 1.827.695l3.931 3.495a.75.75 0 1 1-.996 1.12L4.82 11.317A1.25 1.25 0 0 0 3.99 11H2.75A1.75 1.75 0 0 1 1 9.25v-2.5C1 5.784 1.784 5 2.75 5h1.24c.306 0 .601-.112.83-.316L8.752 1.19a.75.75 0 0 1 1.059.063M11.977 4a.75.75 0 0 1 .558.248l2.25 2.5a.75.75 0 0 1-1.115 1.004l-.943-1.048v4.546a.75.75 0 0 1-1.5 0V6.704l-.942 1.048A.75.75 0 0 1 9.17 6.748l2.25-2.5A.75.75 0 0 1 11.976 4" clip-rule="evenodd"/></svg>
